icon/fa/yen-sign.svg

<svg xmlns="http://www.w3.org/2000/svg" viewBox="0 0 320 512"><!--! Font Awesome Free 6.1.2 by @fontawesome - https://fontawesome.com License - https://fontawesome.com/license/free (Icons: CC BY 4.0, Fonts: SIL OFL 1.1, Code: MIT License) Copyright 2022 Fonticons, Inc.--><path d="M159.1 198.3 261.4 46.25c9.8-14.71 29.6-18.68 44.4-8.88 14.7 9.81 18.6 29.67 8.8 44.38L219.8 223.1H272c17.7 0 32 15.2 32 32 0 18.6-14.3 32-32 32h-80v32h80c17.7 0 32 15.2 32 32.9s-14.3 32-32 32h-80v64c0 17.7-14.3 32-32.9 32-16.8 0-32-14.3-32-32v-64h-80c-16.77 0-32-14.3-32-32s15.23-32.9 32-32.9h80v-32h-80c-16.77 0-32-13.4-32-32 0-16.8 15.23-32 32-32h53.1L5.374 81.75c-9.803-14.71-5.83-34.57 8.876-44.38 14.7-9.8 34.57-5.83 44.37 8.88L159.1 198.3z"/></svg>

<svg xmlns="http://www.w3.org/2000/svg" viewBox="0 0 320 512" height="1em" width="1em">
<!--! Font Awesome Free 6.1.2 by @fontawesome - https://fontawesome.com License - https://fontawesome.com/license/free (Icons: CC BY 4.0, Fonts: SIL OFL 1.1, Code: MIT License) Copyright 2022 Fonticons, Inc.-->
  <path d="M159.1 198.3L261.4 46.25C271.2 31.54 291 27.57 305.8 37.37C320.5 47.18 324.4 67.04 314.6 81.75L219.8 223.1H272C289.7 223.1 304 238.3 304 255.1C304 273.7 289.7 287.1 272 287.1H192V319.1H272C289.7 319.1 304 334.3 304 352C304 369.7 289.7 384 272 384H192V448C192 465.7 177.7 480 159.1 480C142.3 480 127.1 465.7 127.1 448V384H47.1C30.33 384 15.1 369.7 15.1 352C15.1 334.3 30.33 319.1 47.1 319.1H127.1V287.1H47.1C30.33 287.1 15.1 273.7 15.1 255.1C15.1 238.3 30.33 223.1 47.1 223.1H100.2L5.374 81.75C-4.429 67.04-.456 47.18 14.25 37.37C28.95 27.57 48.82 31.54 58.62 46.25L159.1 198.3z"/>
</svg>
